svg/account_school.svg

<svg xmlns="http://www.w3.org/2000/svg" viewBox="0 0 24 24"><path d="M16 8c0 2.21-1.79 4-4 4s-4-1.79-4-4l.11-.94L5 5.5 12 2l7 3.5v5h-1V6l-2.11 1.06zm-4 6c4.42 0 8 1.79 8 4v2H4v-2c0-2.21 3.58-4 8-4"/></svg>

<svg xmlns="http://www.w3.org/2000/svg" id="mdi-account-school" viewBox="0 0 24 24"><path d="M16 8C16 10.21 14.21 12 12 12C9.79 12 8 10.21 8 8L8.11 7.06L5 5.5L12 2L19 5.5V10.5H18V6L15.89 7.06L16 8M12 14C16.42 14 20 15.79 20 18V20H4V18C4 15.79 7.58 14 12 14Z" /></svg>
